pix_core/i/warning.svg

<!DOCTYPE svg PUBLIC "-//W3C//DTD SVG 1.1//EN" "http://www.w3.org/Graphics/SVG/1.1/DTD/svg11.dtd" [
	<!ENTITY ns_flows "http://ns.adobe.com/Flows/1.0/">
]><svg xmlns="http://www.w3.org/2000/svg" width="16" height="16" viewBox="0 0 16 16" preserveAspectRatio="xMinYMid meet" overflow="visible"><path d="M7 .7l-6.8 13.4c-.5 1 0 1.8 1.1 1.8h13.2c1.1 0 1.6-.8 1.1-1.8l-6.8-13.4c-.5-.9-1.3-.9-1.8 0zm2.4 12.7c0 .8-.7 1.5-1.5 1.5s-1.5-.7-1.5-1.5.7-1.5 1.5-1.5 1.5.6 1.5 1.5zm-.2-7.5v4c0 .5-.5 1-1 1h-.6c-.5 0-1-.5-1-1v-4c0-.6.5-1 1-1h.6c.6 0 1 .4 1 1z" fill="#1F4D87"/></svg>

<?xml version="1.0" encoding="utf-8"?>
<!-- Generator: Adobe Illustrator 15.1.0, SVG Export Plug-In  -->
<!DOCTYPE svg PUBLIC "-//W3C//DTD SVG 1.1//EN" "http://www.w3.org/Graphics/SVG/1.1/DTD/svg11.dtd" [
	<!ENTITY ns_flows "http://ns.adobe.com/Flows/1.0/">
]>
<svg version="1.1"
	 xmlns="http://www.w3.org/2000/svg" xmlns:xlink="http://www.w3.org/1999/xlink" xmlns:a="http://ns.adobe.com/AdobeSVGViewerExtensions/3.0/"
	 x="0px" y="0px" width="16px" height="16px" viewBox="0 0 16 16" style="overflow:visible;enable-background:new 0 0 16 16;"
	 xml:space="preserve" preserveAspectRatio="xMinYMid meet">
<defs>
</defs>
<path style="fill:#1F4D87;" d="M7,0.7L0.2,14.1c-0.5,1,0,1.8,1.1,1.8h13.2c1.1,0,1.6-0.8,1.1-1.8L8.8,0.7C8.3-0.2,7.5-0.2,7,0.7z
	 M9.4,13.4c0,0.8-0.7,1.5-1.5,1.5c-0.8,0-1.5-0.7-1.5-1.5c0-0.8,0.7-1.5,1.5-1.5C8.7,11.9,9.4,12.5,9.4,13.4z M9.2,5.9v4
	c0,0.5-0.5,1-1,1H7.6c-0.5,0-1-0.5-1-1v-4c0-0.6,0.5-1,1-1h0.6C8.8,4.9,9.2,5.3,9.2,5.9z"/>
</svg>
